images/50542655.svg

<?xml version="1.0" encoding="UTF-8"?>
<svg xmlns="http://www.w3.org/2000/svg" xmlns:xlink="http://www.w3.org/1999/xlink" width="300pt" height="300pt" viewBox="0 0 300 300" version="1.1">
<defs>
<g>
<symbol overflow="visible" id="glyph0-0">
<path style="stroke:none;" d="M 0.453125 1.59375 L 0.453125 -6.34375 L 4.953125 -6.34375 L 4.953125 1.59375 Z M 0.953125 1.09375 L 4.453125 1.09375 L 4.453125 -5.84375 L 0.953125 -5.84375 Z M 0.953125 1.09375 "/>
</symbol>
<symbol overflow="visible" id="glyph0-1">
<path style="stroke:none;" d="M 3.546875 -5.953125 C 2.898438 -5.953125 2.382812 -5.710938 2 -5.234375 C 1.625 -4.753906 1.4375 -4.101562 1.4375 -3.28125 C 1.4375 -2.445312 1.625 -1.789062 2 -1.3125 C 2.382812 -0.832031 2.898438 -0.59375 3.546875 -0.59375 C 4.191406 -0.59375 4.703125 -0.832031 5.078125 -1.3125 C 5.453125 -1.789062 5.640625 -2.445312 5.640625 -3.28125 C 5.640625 -4.101562 5.453125 -4.753906 5.078125 -5.234375 C 4.703125 -5.710938 4.191406 -5.953125 3.546875 -5.953125 Z M 3.546875 -6.6875 C 4.460938 -6.6875 5.195312 -6.375 5.75 -5.75 C 6.300781 -5.132812 6.578125 -4.3125 6.578125 -3.28125 C 6.578125 -2.238281 6.300781 -1.410156 5.75 -0.796875 C 5.195312 -0.179688 4.460938 0.125 3.546875 0.125 C 2.617188 0.125 1.878906 -0.179688 1.328125 -0.796875 C 0.773438 -1.410156 0.5 -2.238281 0.5 -3.28125 C 0.5 -4.3125 0.773438 -5.132812 1.328125 -5.75 C 1.878906 -6.375 2.617188 -6.6875 3.546875 -6.6875 Z M 3.546875 -6.6875 "/>
</symbol>
<symbol overflow="visible" id="glyph0-2">
<path style="stroke:none;" d="M 0.890625 -6.5625 L 2.078125 -6.5625 L 4.984375 -1.078125 L 4.984375 -6.5625 L 5.84375 -6.5625 L 5.84375 0 L 4.65625 0 L 1.75 -5.484375 L 1.75 0 L 0.890625 0 Z M 0.890625 -6.5625 "/>
</symbol>
<symbol overflow="visible" id="glyph0-3">
<path style="stroke:none;" d="M 0.890625 -6.5625 L 1.765625 -6.5625 L 1.765625 -3.875 L 5 -3.875 L 5 -6.5625 L 5.890625 -6.5625 L 5.890625 0 L 5 0 L 5 -3.125 L 1.765625 -3.125 L 1.765625 0 L 0.890625 0 Z M 0.890625 -6.5625 "/>
</symbol>
<symbol overflow="visible" id="glyph1-0">
<path style="stroke:none;" d="M 0.40625 1.421875 L 0.40625 -5.640625 L 4.40625 -5.640625 L 4.40625 1.421875 Z M 0.84375 0.96875 L 3.953125 0.96875 L 3.953125 -5.1875 L 0.84375 -5.1875 Z M 0.84375 0.96875 "/>
</symbol>
<symbol overflow="visible" id="glyph1-1">
<path style="stroke:none;" d="M 3.6875 -5.015625 L 3.6875 -2.84375 L 5.859375 -2.84375 L 5.859375 -2.171875 L 3.6875 -2.171875 L 3.6875 0 L 3.03125 0 L 3.03125 -2.171875 L 0.84375 -2.171875 L 0.84375 -2.84375 L 3.03125 -2.84375 L 3.03125 -5.015625 Z M 3.6875 -5.015625 "/>
</symbol>
<symbol overflow="visible" id="glyph1-2">
<path style="stroke:none;" d="M 0.390625 -2.515625 L 2.5 -2.515625 L 2.5 -1.875 L 0.390625 -1.875 Z M 0.390625 -2.515625 "/>
</symbol>
</g>
</defs>
<g id="surface22317">
<rect x="0" y="0" width="300" height="300" style="fill:rgb(100%,100%,100%);fill-opacity:1;stroke:none;"/>
<path style="fill:none;stroke-width:1.2;stroke-linecap:butt;stroke-linejoin:miter;stroke:rgb(100%,0%,0%);stroke-opacity:1;stroke-miterlimit:10;" d="M 187.640625 153.542969 L 183.246094 164.304688 "/>
<path style="fill:none;stroke-width:1.2;stroke-linecap:butt;stroke-linejoin:miter;stroke:rgb(0%,0%,0%);stroke-opacity:1;stroke-miterlimit:10;" d="M 183.246094 164.304688 L 178.851562 175.070312 "/>
<path style="fill:none;stroke-width:1.2;stroke-linecap:butt;stroke-linejoin:miter;stroke:rgb(100%,0%,0%);stroke-opacity:1;stroke-miterlimit:10;" d="M 192.707031 155.609375 L 188.3125 166.375 "/>
<path style="fill:none;stroke-width:1.2;stroke-linecap:butt;stroke-linejoin:miter;stroke:rgb(0%,0%,0%);stroke-opacity:1;stroke-miterlimit:10;" d="M 188.3125 166.375 L 183.917969 177.136719 "/>
<path style=" stroke:none;fill-rule:nonzero;fill:rgb(100%,100%,100%);fill-opacity:1;" d="M 186.171875 149.074219 L 194.171875 149.074219 L 194.171875 160.074219 L 186.171875 160.074219 Z M 186.171875 149.074219 "/>
<g style="fill:rgb(100%,0%,0%);fill-opacity:1;">
  <use xlink:href="#glyph0-1" x="186.171875" y="157.737305"/>
</g>
<path style="fill:none;stroke-width:1.2;stroke-linecap:butt;stroke-linejoin:miter;stroke:rgb(0%,0%,0%);stroke-opacity:1;stroke-miterlimit:10;" d="M 181.382812 176.105469 L 188.507812 185.292969 "/>
<path style="fill:none;stroke-width:1.2;stroke-linecap:butt;stroke-linejoin:miter;stroke:rgb(0%,0%,100%);stroke-opacity:1;stroke-miterlimit:10;" d="M 188.507812 185.292969 L 195.632812 194.480469 "/>
<path style="fill:none;stroke-width:1.2;stroke-linecap:butt;stroke-linejoin:miter;stroke:rgb(0%,0%,0%);stroke-opacity:1;stroke-miterlimit:10;" d="M 181.382812 176.105469 L 169.863281 177.679688 "/>
<path style="fill:none;stroke-width:1.2;stroke-linecap:butt;stroke-linejoin:miter;stroke:rgb(0%,0%,100%);stroke-opacity:1;stroke-miterlimit:10;" d="M 169.863281 177.679688 L 158.34375 179.257812 "/>
<path style="fill:none;stroke-width:1.2;stroke-linecap:butt;stroke-linejoin:miter;stroke:rgb(0%,0%,100%);stroke-opacity:1;stroke-miterlimit:10;" d="M 195.632812 194.480469 L 207.152344 192.90625 "/>
<path style="fill:none;stroke-width:1.2;stroke-linecap:butt;stroke-linejoin:miter;stroke:rgb(0%,0%,0%);stroke-opacity:1;stroke-miterlimit:10;" d="M 207.152344 192.90625 L 218.671875 191.328125 "/>
<path style=" stroke:none;fill-rule:nonzero;fill:rgb(100%,100%,100%);fill-opacity:1;" d="M 188.632812 188.980469 L 202.632812 188.980469 L 202.632812 199.980469 L 188.632812 199.980469 Z M 188.632812 188.980469 "/>
<g style="fill:rgb(0%,0%,100%);fill-opacity:1;">
  <use xlink:href="#glyph0-2" x="188.632812" y="197.643555"/>
  <use xlink:href="#glyph0-3" x="195.610352" y="197.643555"/>
</g>
<path style="fill:none;stroke-width:1.2;stroke-linecap:butt;stroke-linejoin:miter;stroke:rgb(0%,0%,0%);stroke-opacity:1;stroke-miterlimit:10;" d="M 218.671875 191.328125 L 232.921875 209.703125 "/>
<path style="fill:none;stroke-width:1.2;stroke-linecap:butt;stroke-linejoin:miter;stroke:rgb(0%,0%,0%);stroke-opacity:1;stroke-miterlimit:10;" d="M 224.421875 189.8125 L 235.820312 204.515625 "/>
<path style="fill:none;stroke-width:1.2;stroke-linecap:butt;stroke-linejoin:miter;stroke:rgb(0%,0%,0%);stroke-opacity:1;stroke-miterlimit:10;" d="M 227.460938 169.800781 L 218.671875 191.328125 "/>
<path style="fill:none;stroke-width:1.2;stroke-linecap:butt;stroke-linejoin:miter;stroke:rgb(0%,0%,0%);stroke-opacity:1;stroke-miterlimit:10;" d="M 232.921875 209.703125 L 255.960938 206.550781 "/>
<path style="fill:none;stroke-width:1.2;stroke-linecap:butt;stroke-linejoin:miter;stroke:rgb(0%,0%,0%);stroke-opacity:1;stroke-miterlimit:10;" d="M 255.960938 206.550781 L 264.75 185.023438 "/>
<path style="fill:none;stroke-width:1.2;stroke-linecap:butt;stroke-linejoin:miter;stroke:rgb(0%,0%,0%);stroke-opacity:1;stroke-miterlimit:10;" d="M 251.773438 202.332031 L 258.804688 185.109375 "/>
<path style="fill:none;stroke-width:1.2;stroke-linecap:butt;stroke-linejoin:miter;stroke:rgb(0%,0%,0%);stroke-opacity:1;stroke-miterlimit:10;" d="M 264.75 185.023438 L 250.5 166.648438 "/>
<path style="fill:none;stroke-width:1.2;stroke-linecap:butt;stroke-linejoin:miter;stroke:rgb(0%,0%,0%);stroke-opacity:1;stroke-miterlimit:10;" d="M 250.5 166.648438 L 227.460938 169.800781 "/>
<path style="fill:none;stroke-width:1.2;stroke-linecap:butt;stroke-linejoin:miter;stroke:rgb(0%,0%,0%);stroke-opacity:1;stroke-miterlimit:10;" d="M 248.9375 172.382812 L 230.507812 174.90625 "/>
<path style="fill:none;stroke-width:1.2;stroke-linecap:butt;stroke-linejoin:miter;stroke:rgb(0%,0%,100%);stroke-opacity:1;stroke-miterlimit:10;" d="M 158.34375 179.257812 L 151.21875 170.070312 "/>
<path style="fill:none;stroke-width:1.2;stroke-linecap:butt;stroke-linejoin:miter;stroke:rgb(0%,0%,0%);stroke-opacity:1;stroke-miterlimit:10;" d="M 151.21875 170.070312 L 144.09375 160.882812 "/>
<path style=" stroke:none;fill-rule:nonzero;fill:rgb(100%,100%,100%);fill-opacity:1;" d="M 151.34375 173.757812 L 165.34375 173.757812 L 165.34375 184.757812 L 151.34375 184.757812 Z M 151.34375 173.757812 "/>
<g style="fill:rgb(0%,0%,100%);fill-opacity:1;">
  <use xlink:href="#glyph0-2" x="151.34375" y="182.420898"/>
  <use xlink:href="#glyph0-3" x="158.321289" y="182.420898"/>
</g>
<path style="fill:none;stroke-width:1.2;stroke-linecap:butt;stroke-linejoin:miter;stroke:rgb(0%,0%,0%);stroke-opacity:1;stroke-miterlimit:10;" d="M 144.09375 160.882812 L 132.472656 161.246094 "/>
<path style="fill:none;stroke-width:1.2;stroke-linecap:butt;stroke-linejoin:miter;stroke:rgb(0%,0%,100%);stroke-opacity:1;stroke-miterlimit:10;" d="M 132.472656 161.246094 L 120.851562 161.609375 "/>
<path style="fill:none;stroke-width:1.2;stroke-linecap:butt;stroke-linejoin:miter;stroke:rgb(0%,0%,0%);stroke-opacity:1;stroke-miterlimit:10;" d="M 150.585938 138.550781 L 144.09375 160.882812 "/>
<path style="fill:none;stroke-width:1.2;stroke-linecap:butt;stroke-linejoin:miter;stroke:rgb(0%,0%,0%);stroke-opacity:1;stroke-miterlimit:10;" d="M 144.683594 139.257812 L 139.488281 157.121094 "/>
<path style="fill:none;stroke-width:1.2;stroke-linecap:butt;stroke-linejoin:miter;stroke:rgb(0%,0%,100%);stroke-opacity:1;stroke-miterlimit:10;" d="M 120.851562 161.609375 L 112.980469 139.726562 "/>
<path style="fill:none;stroke-width:1.2;stroke-linecap:butt;stroke-linejoin:miter;stroke:rgb(0%,0%,100%);stroke-opacity:1;stroke-miterlimit:10;" d="M 120.851562 161.609375 L 114.316406 171.222656 "/>
<path style="fill:none;stroke-width:1.2;stroke-linecap:butt;stroke-linejoin:miter;stroke:rgb(0%,0%,0%);stroke-opacity:1;stroke-miterlimit:10;" d="M 114.316406 171.222656 L 107.777344 180.839844 "/>
<path style=" stroke:none;fill-rule:nonzero;fill:rgb(100%,100%,100%);fill-opacity:1;" d="M 117.851562 156.109375 L 124.851562 156.109375 L 124.851562 167.109375 L 117.851562 167.109375 Z M 117.851562 156.109375 "/>
<g style="fill:rgb(0%,0%,100%);fill-opacity:1;">
  <use xlink:href="#glyph0-2" x="117.851562" y="164.772461"/>
</g>
<path style="fill:none;stroke-width:1.2;stroke-linecap:butt;stroke-linejoin:miter;stroke:rgb(0%,0%,100%);stroke-opacity:1;stroke-miterlimit:10;" d="M 112.980469 139.726562 L 122.167969 132.601562 "/>
<path style="fill:none;stroke-width:1.2;stroke-linecap:butt;stroke-linejoin:miter;stroke:rgb(0%,0%,0%);stroke-opacity:1;stroke-miterlimit:10;" d="M 122.167969 132.601562 L 131.355469 125.476562 "/>
<path style="fill:none;stroke-width:1.2;stroke-linecap:butt;stroke-linejoin:miter;stroke:rgb(0%,0%,100%);stroke-opacity:1;stroke-miterlimit:10;" d="M 118.167969 142.625 L 125.519531 136.925781 "/>
<path style="fill:none;stroke-width:1.2;stroke-linecap:butt;stroke-linejoin:miter;stroke:rgb(0%,0%,0%);stroke-opacity:1;stroke-miterlimit:10;" d="M 125.519531 136.925781 L 132.871094 131.226562 "/>
<path style=" stroke:none;fill-rule:nonzero;fill:rgb(100%,100%,100%);fill-opacity:1;" d="M 109.980469 134.226562 L 116.980469 134.226562 L 116.980469 145.226562 L 109.980469 145.226562 Z M 109.980469 134.226562 "/>
<g style="fill:rgb(0%,0%,100%);fill-opacity:1;">
  <use xlink:href="#glyph0-2" x="109.980469" y="142.889648"/>
</g>
<path style="fill:none;stroke-width:1.2;stroke-linecap:butt;stroke-linejoin:miter;stroke:rgb(0%,0%,0%);stroke-opacity:1;stroke-miterlimit:10;" d="M 131.355469 125.476562 L 150.585938 138.550781 "/>
<path style="fill:none;stroke-width:1.2;stroke-linecap:butt;stroke-linejoin:miter;stroke:rgb(0%,0%,0%);stroke-opacity:1;stroke-miterlimit:10;" d="M 131.355469 125.476562 L 130.628906 102.234375 "/>
<path style="fill:none;stroke-width:1.2;stroke-linecap:butt;stroke-linejoin:miter;stroke:rgb(0%,0%,0%);stroke-opacity:1;stroke-miterlimit:10;" d="M 130.628906 102.234375 L 153.871094 101.507812 "/>
<path style="fill:none;stroke-width:1.2;stroke-linecap:butt;stroke-linejoin:miter;stroke:rgb(0%,0%,0%);stroke-opacity:1;stroke-miterlimit:10;" d="M 130.628906 102.234375 L 107.386719 102.960938 "/>
<path style="fill:none;stroke-width:1.2;stroke-linecap:butt;stroke-linejoin:miter;stroke:rgb(0%,0%,0%);stroke-opacity:1;stroke-miterlimit:10;" d="M 130.628906 102.234375 L 129.902344 78.992188 "/>
<path style="fill:none;stroke-width:1.2;stroke-linecap:butt;stroke-linejoin:miter;stroke:rgb(0%,0%,0%);stroke-opacity:1;stroke-miterlimit:10;" d="M 107.777344 180.839844 L 84.585938 179.132812 "/>
<path style="fill:none;stroke-width:1.2;stroke-linecap:butt;stroke-linejoin:miter;stroke:rgb(0%,0%,0%);stroke-opacity:1;stroke-miterlimit:10;" d="M 105.058594 186.125 L 86.503906 184.757812 "/>
<path style="fill:none;stroke-width:1.2;stroke-linecap:butt;stroke-linejoin:miter;stroke:rgb(0%,0%,0%);stroke-opacity:1;stroke-miterlimit:10;" d="M 117.894531 201.777344 L 107.777344 180.839844 "/>
<path style="fill:none;stroke-width:1.2;stroke-linecap:butt;stroke-linejoin:miter;stroke:rgb(0%,0%,0%);stroke-opacity:1;stroke-miterlimit:10;" d="M 84.585938 179.132812 L 71.515625 198.363281 "/>
<path style="fill:none;stroke-width:1.2;stroke-linecap:butt;stroke-linejoin:miter;stroke:rgb(0%,0%,0%);stroke-opacity:1;stroke-miterlimit:10;" d="M 71.515625 198.363281 L 59.917969 197.507812 "/>
<path style="fill:none;stroke-width:1.2;stroke-linecap:butt;stroke-linejoin:miter;stroke:rgb(0%,0%,100%);stroke-opacity:1;stroke-miterlimit:10;" d="M 59.917969 197.507812 L 48.324219 196.65625 "/>
<path style="fill:none;stroke-width:1.2;stroke-linecap:butt;stroke-linejoin:miter;stroke:rgb(0%,0%,0%);stroke-opacity:1;stroke-miterlimit:10;" d="M 71.515625 198.363281 L 81.632812 219.300781 "/>
<path style="fill:none;stroke-width:1.2;stroke-linecap:butt;stroke-linejoin:miter;stroke:rgb(0%,0%,0%);stroke-opacity:1;stroke-miterlimit:10;" d="M 77.453125 198.074219 L 85.546875 214.824219 "/>
<path style="fill:none;stroke-width:1.2;stroke-linecap:butt;stroke-linejoin:miter;stroke:rgb(0%,0%,100%);stroke-opacity:1;stroke-miterlimit:10;" d="M 46.0625 195.117188 L 39.523438 204.734375 "/>
<path style="fill:none;stroke-width:1.2;stroke-linecap:butt;stroke-linejoin:miter;stroke:rgb(100%,0%,0%);stroke-opacity:1;stroke-miterlimit:10;" d="M 39.523438 204.734375 L 32.988281 214.347656 "/>
<path style="fill:none;stroke-width:1.2;stroke-linecap:butt;stroke-linejoin:miter;stroke:rgb(0%,0%,100%);stroke-opacity:1;stroke-miterlimit:10;" d="M 50.585938 198.195312 L 44.050781 207.808594 "/>
<path style="fill:none;stroke-width:1.2;stroke-linecap:butt;stroke-linejoin:miter;stroke:rgb(100%,0%,0%);stroke-opacity:1;stroke-miterlimit:10;" d="M 44.050781 207.808594 L 37.511719 217.425781 "/>
<path style="fill:none;stroke-width:1.2;stroke-linecap:butt;stroke-linejoin:miter;stroke:rgb(0%,0%,100%);stroke-opacity:1;stroke-miterlimit:10;" d="M 48.324219 196.65625 L 43.265625 186.1875 "/>
<path style="fill:none;stroke-width:1.2;stroke-linecap:butt;stroke-linejoin:miter;stroke:rgb(100%,0%,0%);stroke-opacity:1;stroke-miterlimit:10;" d="M 43.265625 186.1875 L 38.207031 175.71875 "/>
<path style=" stroke:none;fill-rule:nonzero;fill:rgb(100%,100%,100%);fill-opacity:1;" d="M 41.324219 189.15625 L 55.324219 189.15625 L 55.324219 204.15625 L 41.324219 204.15625 Z M 41.324219 189.15625 "/>
<g style="fill:rgb(0%,0%,100%);fill-opacity:1;">
  <use xlink:href="#glyph0-2" x="41.324219" y="201.257812"/>
</g>
<g style="fill:rgb(0%,0%,100%);fill-opacity:1;">
  <use xlink:href="#glyph1-1" x="48.301758" y="196.375"/>
</g>
<path style=" stroke:none;fill-rule:nonzero;fill:rgb(100%,100%,100%);fill-opacity:1;" d="M 27.25 210.386719 L 35.25 210.386719 L 35.25 221.386719 L 27.25 221.386719 Z M 27.25 210.386719 "/>
<g style="fill:rgb(100%,0%,0%);fill-opacity:1;">
  <use xlink:href="#glyph0-1" x="27.25" y="219.049805"/>
</g>
<path style=" stroke:none;fill-rule:nonzero;fill:rgb(100%,100%,100%);fill-opacity:1;" d="M 27.207031 168.21875 L 38.207031 168.21875 L 38.207031 183.21875 L 27.207031 183.21875 Z M 27.207031 168.21875 "/>
<g style="fill:rgb(100%,0%,0%);fill-opacity:1;">
  <use xlink:href="#glyph1-2" x="27.207031" y="175.4375"/>
</g>
<g style="fill:rgb(100%,0%,0%);fill-opacity:1;">
  <use xlink:href="#glyph0-1" x="30.014648" y="180.320312"/>
</g>
<path style="fill:none;stroke-width:1.2;stroke-linecap:butt;stroke-linejoin:miter;stroke:rgb(0%,0%,0%);stroke-opacity:1;stroke-miterlimit:10;" d="M 81.632812 219.300781 L 104.824219 221.007812 "/>
<path style="fill:none;stroke-width:1.2;stroke-linecap:butt;stroke-linejoin:miter;stroke:rgb(0%,0%,0%);stroke-opacity:1;stroke-miterlimit:10;" d="M 104.824219 221.007812 L 117.894531 201.777344 "/>
<path style="fill:none;stroke-width:1.2;stroke-linecap:butt;stroke-linejoin:miter;stroke:rgb(0%,0%,0%);stroke-opacity:1;stroke-miterlimit:10;" d="M 101.605469 216.007812 L 112.0625 200.621094 "/>
</g>
</svg>

<svg xmlns="http://www.w3.org/2000/svg" xmlns:xlink="http://www.w3.org/1999/xlink" width="300pt" height="300pt" viewBox="0 0 300 300"><defs><symbol overflow="visible"><path d="M.453 1.594v-7.938h4.5v7.938zm.5-.5h3.5v-6.938h-3.5zm0 0"/></symbol><symbol overflow="visible" id="a"><path d="M3.547-5.953c-.65 0-1.164.242-1.547.72-.375.48-.563 1.13-.563 1.952 0 .835.188 1.49.563 1.967.383.48.898.72 1.547.72.644 0 1.156-.24 1.53-.72.376-.476.564-1.132.564-1.968 0-.822-.187-1.474-.562-1.954-.375-.477-.887-.72-1.53-.72zm0-.734c.914 0 1.648.312 2.203.937.55.617.828 1.438.828 2.47 0 1.042-.277 1.87-.828 2.483-.555.617-1.29.922-2.203.922-.93 0-1.668-.305-2.22-.922C.774-1.41.5-2.237.5-3.28c0-1.033.273-1.853.828-2.47.55-.625 1.29-.938 2.22-.938zm0 0"/></symbol><symbol overflow="visible" id="b"><path d="M.89-6.563H2.08l2.906 5.485v-5.484h.86V0H4.656L1.75-5.484V0H.89zm0 0"/></symbol><symbol overflow="visible" id="c"><path d="M.89-6.563h.876v2.688H5v-2.688h.89V0H5v-3.125H1.766V0H.89zm0 0"/></symbol><symbol overflow="visible"><path d="M.406 1.422V-5.64h4V1.42zM.844.97h3.11v-6.157H.843zm0 0"/></symbol><symbol overflow="visible" id="d"><path d="M3.688-5.016v2.172h2.17v.672H3.69V0H3.03v-2.172H.845v-.672H3.03v-2.172zm0 0"/></symbol><symbol overflow="visible" id="e"><path d="M.39-2.516H2.5v.64H.39zm0 0"/></symbol></defs><g><path fill="#fff" d="M0 0h300v300H0z"/><path d="M187.64 153.543l-4.394 10.762" stroke-width="1.2" stroke="#f00" stroke-miterlimit="10" fill="none"/><path d="M183.246 164.305l-4.394 10.765" stroke-width="1.2" stroke="#000" stroke-miterlimit="10" fill="none"/><path d="M192.707 155.61l-4.394 10.765" stroke-width="1.2" stroke="#f00" stroke-miterlimit="10" fill="none"/><path d="M188.313 166.375l-4.395 10.762" stroke-width="1.2" stroke="#000" stroke-miterlimit="10" fill="none"/><path d="M186.172 149.074h8v11h-8zm0 0" fill="#fff"/><use xlink:href="#a" x="186.172" y="157.737" fill="#f00"/><path d="M181.383 176.105l7.125 9.188" stroke-width="1.2" stroke="#000" stroke-miterlimit="10" fill="none"/><path d="M188.508 185.293l7.125 9.187" stroke-width="1.2" stroke="#00f" stroke-miterlimit="10" fill="none"/><path d="M181.383 176.105l-11.52 1.575" stroke-width="1.2" stroke="#000" stroke-miterlimit="10" fill="none"/><path d="M169.863 177.68l-11.52 1.578M195.633 194.48l11.52-1.574" stroke-width="1.2" stroke="#00f" stroke-miterlimit="10" fill="none"/><path d="M207.152 192.906l11.52-1.578" stroke-width="1.2" stroke="#000" stroke-miterlimit="10" fill="none"/><path d="M188.633 188.98h14v11h-14zm0 0" fill="#fff"/><g fill="#00f"><use xlink:href="#b" x="188.633" y="197.644"/><use xlink:href="#c" x="195.61" y="197.644"/></g><path d="M218.672 191.328l14.25 18.375M224.422 189.813l11.398 14.703M227.46 169.8l-8.788 21.528M232.922 209.703l23.04-3.152M255.96 206.55l8.79-21.527M251.773 202.332l7.032-17.223M264.75 185.023l-14.25-18.375M250.5 166.648l-23.04 3.153M248.938 172.383l-18.43 2.523" stroke-width="1.2" stroke="#000" stroke-miterlimit="10" fill="none"/><path d="M158.344 179.258l-7.125-9.188" stroke-width="1.2" stroke="#00f" stroke-miterlimit="10" fill="none"/><path d="M151.22 170.07l-7.126-9.187" stroke-width="1.2" stroke="#000" stroke-miterlimit="10" fill="none"/><path d="M151.344 173.758h14v11h-14zm0 0" fill="#fff"/><g fill="#00f"><use xlink:href="#b" x="151.344" y="182.421"/><use xlink:href="#c" x="158.321" y="182.421"/></g><path d="M144.094 160.883l-11.62.363" stroke-width="1.2" stroke="#000" stroke-miterlimit="10" fill="none"/><path d="M132.473 161.246l-11.62.363" stroke-width="1.2" stroke="#00f" stroke-miterlimit="10" fill="none"/><path d="M150.586 138.55l-6.492 22.333M144.684 139.258l-5.196 17.863" stroke-width="1.2" stroke="#000" stroke-miterlimit="10" fill="none"/><path d="M120.852 161.61l-7.872-21.883M120.852 161.61l-6.536 9.613" stroke-width="1.2" stroke="#00f" stroke-miterlimit="10" fill="none"/><path d="M114.316 171.223l-6.54 9.617" stroke-width="1.2" stroke="#000" stroke-miterlimit="10" fill="none"/><path d="M117.852 156.11h7v11h-7zm0 0" fill="#fff"/><use xlink:href="#b" x="117.852" y="164.772" fill="#00f"/><path d="M112.98 139.727l9.188-7.125" stroke-width="1.2" stroke="#00f" stroke-miterlimit="10" fill="none"/><path d="M122.168 132.602l9.187-7.125" stroke-width="1.2" stroke="#000" stroke-miterlimit="10" fill="none"/><path d="M118.168 142.625l7.352-5.7" stroke-width="1.2" stroke="#00f" stroke-miterlimit="10" fill="none"/><path d="M125.52 136.926l7.35-5.7" stroke-width="1.2" stroke="#000" stroke-miterlimit="10" fill="none"/><path d="M109.98 134.227h7v11h-7zm0 0" fill="#fff"/><use xlink:href="#b" x="109.98" y="142.89" fill="#00f"/><path d="M131.355 125.477l19.23 13.074M131.355 125.477l-.726-23.243M130.63 102.234l23.24-.726M130.63 102.234l-23.243.727M130.63 102.234l-.728-23.242M107.777 180.84l-23.19-1.707M105.06 186.125l-18.556-1.367M117.895 201.777l-10.118-20.937M84.586 179.133l-13.07 19.23M71.516 198.363l-11.598-.855" stroke-width="1.2" stroke="#000" stroke-miterlimit="10" fill="none"/><path d="M59.918 197.508l-11.594-.852" stroke-width="1.2" stroke="#00f" stroke-miterlimit="10" fill="none"/><path d="M71.516 198.363L81.633 219.3M77.453 198.074l8.094 16.75" stroke-width="1.2" stroke="#000" stroke-miterlimit="10" fill="none"/><path d="M46.063 195.117l-6.54 9.617" stroke-width="1.2" stroke="#00f" stroke-miterlimit="10" fill="none"/><path d="M39.523 204.734l-6.535 9.614" stroke-width="1.2" stroke="#f00" stroke-miterlimit="10" fill="none"/><path d="M50.586 198.195l-6.535 9.614" stroke-width="1.2" stroke="#00f" stroke-miterlimit="10" fill="none"/><path d="M44.05 207.81l-6.538 9.616" stroke-width="1.2" stroke="#f00" stroke-miterlimit="10" fill="none"/><path d="M48.324 196.656l-5.058-10.47" stroke-width="1.2" stroke="#00f" stroke-miterlimit="10" fill="none"/><path d="M43.266 186.188l-5.06-10.47" stroke-width="1.2" stroke="#f00" stroke-miterlimit="10" fill="none"/><path d="M41.324 189.156h14v15h-14zm0 0" fill="#fff"/><use xlink:href="#b" x="41.324" y="201.258" fill="#00f"/><use xlink:href="#d" x="48.302" y="196.375" fill="#00f"/><path d="M27.25 210.387h8v11h-8zm0 0" fill="#fff"/><use xlink:href="#a" x="27.25" y="219.05" fill="#f00"/><path d="M27.207 168.22h11v15h-11zm0 0" fill="#fff"/><use xlink:href="#e" x="27.207" y="175.438" fill="#f00"/><use xlink:href="#a" x="30.015" y="180.32" fill="#f00"/><path d="M81.633 219.3l23.19 1.708M104.824 221.008l13.07-19.23M101.605 216.008l10.457-15.387" stroke-width="1.2" stroke="#000" stroke-miterlimit="10" fill="none"/></g></svg>
